svg/fluentui-system-icons/ic_fluent_document_multiple_percent_24_regular.svg

<svg width="24" height="24" viewBox="0 0 24 24" fill="none" xmlns="http://www.w3.org/2000/svg">
<path d="M6.25 3.5C5.83579 3.5 5.5 3.83579 5.5 4.25V11.6273C5.0625 11.3222 4.55203 11.1144 4 11.0354V4.25C4 3.00736 5.00736 2 6.25 2H10.6312C11.2279 2 11.8002 2.23705 12.2221 2.65901L16.841 7.27786C17.2629 7.69981 17.5 8.27211 17.5 8.86885V17.25C17.5 18.4926 16.4926 19.5 15.25 19.5H12.8551C12.6836 18.9238 12.3677 18.4099 11.9495 18H15.25C15.6642 18 16 17.6642 16 17.25V8.99753H12.7539C11.5113 8.99753 10.5039 7.99017 10.5039 6.74753V3.5H6.25ZM12.0039 4.56209V6.74753C12.0039 7.16174 12.3397 7.49753 12.7539 7.49753H14.9393L12.0039 4.56209ZM15.2509 22H12.6632C12.8791 21.5454 13 21.0368 13 20.5H15.2509C17.0458 20.5 18.5009 19.0449 18.5009 17.25V8.93689L19.3419 9.77788C19.7638 10.1998 20.0009 10.7721 20.0009 11.3689V17.25C20.0009 19.8734 17.8742 22 15.2509 22ZM3.5 17C4.88071 17 6 15.8807 6 14.5C6 13.1193 4.88071 12 3.5 12C2.11929 12 1 13.1193 1 14.5C1 15.8807 2.11929 17 3.5 17ZM3.5 13.5C4.05228 13.5 4.5 13.9477 4.5 14.5C4.5 15.0523 4.05228 15.5 3.5 15.5C2.94772 15.5 2.5 15.0523 2.5 14.5C2.5 13.9477 2.94772 13.5 3.5 13.5ZM9.5 23C10.8807 23 12 21.8807 12 20.5C12 19.1193 10.8807 18 9.5 18C8.11929 18 7 19.1193 7 20.5C7 21.8807 8.11929 23 9.5 23ZM9.5 19.5C10.0523 19.5 10.5 19.9477 10.5 20.5C10.5 21.0523 10.0523 21.5 9.5 21.5C8.94772 21.5 8.5 21.0523 8.5 20.5C8.5 19.9477 8.94772 19.5 9.5 19.5ZM10.7803 14.2803C11.0732 13.9874 11.0732 13.5126 10.7803 13.2197C10.4874 12.9268 10.0126 12.9268 9.71967 13.2197L2.21967 20.7197C1.92678 21.0126 1.92678 21.4874 2.21967 21.7803C2.51256 22.0732 2.98744 22.0732 3.28033 21.7803L10.7803 14.2803Z" fill="#212121"/>
</svg>

<svg xmlns="http://www.w3.org/2000/svg" width="24" height="24"><path d="M6.25 3.5a.75.75 0 0 0-.75.75v7.377a3.482 3.482 0 0 0-1.5-.592V4.25A2.25 2.25 0 0 1 6.25 2h4.381a2.25 2.25 0 0 1 1.591.659l4.619 4.619c.422.422.659.994.659 1.59v8.382a2.25 2.25 0 0 1-2.25 2.25h-2.395a3.5 3.5 0 0 0-.905-1.5h3.3a.75.75 0 0 0 .75-.75V8.998h-3.246a2.25 2.25 0 0 1-2.25-2.25V3.5H6.25Zm5.754 1.062v2.186c0 .414.336.75.75.75h2.185l-2.935-2.936ZM15.25 22h-2.588c.216-.455.337-.963.337-1.5h2.25a3.25 3.25 0 0 0 3.25-3.25V8.937l.842.84c.422.423.659.995.659 1.592v5.881A4.75 4.75 0 0 1 15.25 22ZM3.5 17a2.5 2.5 0 1 0 0-5 2.5 2.5 0 0 0 0 5Zm0-3.5a1 1 0 1 1 0 2 1 1 0 0 1 0-2Zm6 9.5a2.5 2.5 0 1 0 0-5 2.5 2.5 0 0 0 0 5Zm0-3.5a1 1 0 1 1 0 2 1 1 0 0 1 0-2Zm1.28-5.22a.75.75 0 1 0-1.06-1.06l-7.5 7.5a.75.75 0 1 0 1.06 1.06l7.5-7.5Z"/></svg>
